brandFactory_export/2.Regular/Gimnasio gym_2Regular.svg

<?xml version="1.0" encoding="UTF-8"?>
<svg width="24px" height="24px" viewBox="0 0 24 24" version="1.1" xmlns="http://www.w3.org/2000/svg" xmlns:xlink="http://www.w3.org/1999/xlink">
    <title>2.Regular/Gimnasio gym_2Regular</title>
    <g id="Symbols" stroke="none" stroke-width="1" fill="none" fill-rule="evenodd">
        <g id="2.Regular/Gimnasio-gym_2Regular" fill="#5CB615" fill-rule="nonzero">
            <path d="M20.810084,16.4067227 L22.1243697,16.4067227 L22.1243697,7.34789916 L20.810084,7.34789916 L20.810084,16.4067227 Z M17.9563025,18.1478992 L17.9563025,13.189916 C17.9563025,13.1798319 17.9596639,13.1764706 17.9596639,13.1663866 L17.9596639,10.5915966 C17.9596639,10.5815126 17.9563025,10.5781513 17.9563025,10.5680672 L17.9563025,5.61008403 L19.2739496,5.61008403 L19.2739496,7.3210084 C19.2739496,7.33109244 19.2705882,7.33781513 19.2705882,7.3512605 L19.2705882,16.410084 C19.2705882,16.4201681 19.2739496,16.4302521 19.2739496,16.4403361 L19.2739496,18.1512605 L17.9563025,18.1512605 L17.9563025,18.1478992 Z M7.28739496,13.1663866 L16.4235294,13.1663866 L16.4235294,10.5915966 L7.28739496,10.5915966 L7.28739496,13.1663866 L7.28739496,13.1663866 Z M4.43361345,18.1478992 L4.43361345,5.61008403 L5.7512605,5.61008403 L5.7512605,10.4134454 C5.74453782,10.4739496 5.73445378,10.5310924 5.73445378,10.5915966 L5.73445378,13.1663866 C5.73445378,13.2268908 5.74453782,13.287395 5.7512605,13.3445378 L5.7512605,18.1445378 L4.43361345,18.1445378 L4.43361345,18.1478992 Z M1.5697479,16.4067227 L2.88739496,16.4067227 L2.88739496,7.34789916 L1.5697479,7.34789916 L1.5697479,16.4067227 L1.5697479,16.4067227 Z M22.1210084,5.74453782 L20.8067227,5.74453782 L20.8067227,5.61008403 C20.8067227,4.72268908 20.1176471,4.00672269 19.2705882,4.00672269 L17.9529412,4.00672269 C17.1058824,4.00672269 16.4168067,4.72605042 16.4168067,5.61008403 L16.4168067,8.98823529 L7.28067227,8.98823529 L7.28067227,5.61008403 C7.28067227,4.72268908 6.59159664,4.00672269 5.74453782,4.00672269 L4.42689076,4.00672269 C3.57983193,4.00672269 2.8907563,4.72605042 2.8907563,5.61008403 L2.8907563,5.74789916 C2.88403361,5.74789916 2.88067227,5.74453782 2.87731092,5.74453782 L1.55966387,5.74453782 C0.712605042,5.74453782 0.0235294118,6.46386555 0.0235294118,7.34789916 L0.0235294118,16.4067227 C0.0235294118,17.2941176 0.709243697,18.010084 1.55966387,18.010084 L2.87731092,18.010084 C2.88403361,18.010084 2.88739496,18.0067227 2.8907563,18.0067227 L2.8907563,18.1445378 C2.8907563,19.0319328 3.57983193,19.7478992 4.42689076,19.7478992 L5.74453782,19.7478992 C6.59159664,19.7478992 7.28067227,19.0285714 7.28067227,18.1445378 L7.28067227,14.7697479 L16.4168067,14.7697479 L16.4168067,18.1445378 C16.4168067,19.0319328 17.102521,19.7478992 17.9529412,19.7478992 L19.2705882,19.7478992 C20.1176471,19.7478992 20.8067227,19.0285714 20.8067227,18.1445378 L20.8067227,18.010084 L22.1210084,18.010084 C22.9680672,18.010084 23.6571429,17.2907563 23.6571429,16.4067227 L23.6571429,7.34789916 C23.6571429,6.46386555 22.9680672,5.74453782 22.1210084,5.74453782 Z" id="Gimnasio-gym_2Regular"></path>
        </g>
    </g>
</svg>

<svg width="24" height="24" viewBox="0 0 24 24" xmlns="http://www.w3.org/2000/svg"><path d="M20.81 16.407h1.314v-9.06H20.81v9.06zm-2.854 1.74V13.19c0-.01.004-.014.004-.024v-2.574c0-.01-.004-.014-.004-.024V5.61h1.318v1.711c0 .01-.003.017-.003.03v9.06l.003.03v1.71h-1.318v-.003zm-10.669-4.98h9.137v-2.575H7.287v2.574zm-2.853 4.98V5.61H5.75v4.803c-.006.06-.017.118-.017.179v2.574c0 .06.01.121.017.179v4.8H4.434v.003zm-2.864-1.74h1.317v-9.06H1.57v9.06zM22.12 5.745h-1.314V5.61c0-.887-.69-1.603-1.536-1.603h-1.318c-.847 0-1.536.72-1.536 1.603v3.378H7.28V5.61c0-.887-.69-1.603-1.536-1.603H4.427c-.847 0-1.536.72-1.536 1.603v.138c-.007 0-.01-.003-.014-.003H1.56c-.847 0-1.536.719-1.536 1.603v9.059c0 .887.685 1.603 1.536 1.603h1.317c.007 0 .01-.003.014-.003v.138c0 .887.689 1.603 1.536 1.603h1.318c.847 0 1.536-.72 1.536-1.603V14.77h9.136v3.375c0 .887.686 1.603 1.536 1.603h1.318c.847 0 1.536-.72 1.536-1.603v-.135h1.314c.847 0 1.536-.72 1.536-1.603v-9.06c0-.883-.689-1.602-1.536-1.602z" fill="#5CB615" fill-rule="nonzero"/></svg>
